src/pivotal-ui/components/svg-iconography/package-icon.svg

<svg xmlns="http://www.w3.org/2000/svg" viewBox="0 -65 900 1024"><path d="M483.84 180.736l227.328 103.936v304.64l-227.328-103.936v-304.64zM199.168 284.16l227.328-103.936v305.152l-227.328 103.936c0 0 0-305.152 0-305.152zM837.632 783.872l-321.536 162.304c-38.4 18.432-82.432 18.432-120.832 0l-322.56-162.304c-44.032-22.528-72.704-68.096-72.704-116.736v-437.76c0-49.664 28.672-95.232 72.704-116.736l321.536-162.816c38.4-18.432 82.432-18.432 120.832 0l321.536 162.304c44.032 22.528 72.704 68.096 72.704 116.736v437.248c1.024 49.664-27.648 95.232-71.68 117.76zM749.056 238.592l-280.576-127.488c-8.704-4.096-18.432-4.096-27.136 0l-280.576 127.488c-11.776 5.12-18.944 16.896-18.944 29.696v356.864c0 12.8 7.68 24.064 18.944 29.696l281.088 127.488c8.704 4.096 18.432 4.096 27.136 0l280.576-127.488c11.776-5.12 18.944-16.896 18.944-29.696v-356.864c-0.512-12.8-7.68-24.064-19.456-29.696zM244.736 630.272l210.432-95.232 210.432 95.232-210.432 95.232-210.432-95.232z"/></svg>

<svg xmlns="http://www.w3.org/2000/svg" viewBox="0 -65 900 1024">
    <path d="M483.84 180.736l227.328 103.936v304.64L483.84 485.376v-304.64zM199.168 284.16l227.328-103.936v305.152L199.168 589.312V284.16zm638.464 499.712L516.096 946.176c-38.4 18.432-82.432 18.432-120.832 0L72.704 783.872C28.672 761.344 0 715.776 0 667.136v-437.76c0-49.664 28.672-95.232 72.704-116.736L394.24-50.176c38.4-18.432 82.432-18.432 120.832 0l321.536 162.304c44.032 22.528 72.704 68.096 72.704 116.736v437.248c1.024 49.664-27.648 95.232-71.68 117.76zm-88.576-545.28L468.48 111.104c-8.704-4.096-18.432-4.096-27.136 0L160.768 238.592c-11.776 5.12-18.944 16.896-18.944 29.696v356.864c0 12.8 7.68 24.064 18.944 29.696l281.088 127.488c8.704 4.096 18.432 4.096 27.136 0l280.576-127.488c11.776-5.12 18.944-16.896 18.944-29.696V268.288c-.512-12.8-7.68-24.064-19.456-29.696zm-504.32 391.68l210.432-95.232L665.6 630.272l-210.432 95.232-210.432-95.232z"/>
</svg>
